X: 10722
T: Doyle's Castle
R: jig
M: 6/8
K: Dmajor
A|:dfd BAG|FGA d2e|f3 gec|dfd ecA|
dcd BAG|FGA d2 e|f3 gec|edc d2 A:|
DFA dAF|GAB A2d|f2d gec|dfd ecA|
DFA dAF|GAB A2d|f3 gec|edc d2A:|

